assets/icons/logo.svg

<svg width="144" height="49" viewBox="0 0 144 49" fill="none" xmlns="http://www.w3.org/2000/svg">
<path d="M9.80847 14.6151C11.6585 12.7735 14.2296 11.0975 17.6414 9.6816C12.7754 13.3008 9.86176 16.9277 8.47512 20.3396C7.21155 24.1147 6.77594 27.4309 7.31998 30.2498C8.17551 35.1152 10.5634 38.8088 13.1115 41.1562C22.0769 49.4155 44.2544 51.2854 50.9549 24.4533C50.4495 31.3722 48.552 36.63 45.5259 40.4403C36.022 52.4073 17.6414 51.2854 9.31525 40.4403C5.68769 36.2111 3.8003 30.6184 5.05812 24.2663C5.67491 21.1514 6.88288 17.8154 9.80847 14.6151Z" fill="#669934"/>
<path d="M15.7539 39.412C20.4725 43.3386 26.3956 44.6755 31.2349 43.9527C38.8627 42.8135 44.1245 37.2019 46.5252 30.6237C48.9648 23.9392 47.7656 16.7244 44.462 11.2541C41.4233 6.22238 37.1765 2.60585 29.0604 0.610352C24.0563 -0.620025 18.2996 -0.137228 11.9789 3.41777C32.6654 -2.4909 40.5571 8.74677 43.7012 14.9651C43.7307 15.0233 43.7598 15.0818 43.7885 15.1406C49.724 27.2899 39.5152 49.8327 15.7539 39.412Z" fill="#669934"/>
<path d="M41.585 15.0166C42.7195 17.4399 43.122 20.8071 42.5711 24.8601C41.5903 18.9842 39.4308 14.1242 36.8485 11.4815C33.8812 8.8025 31.0003 7.05942 28.1796 6.40527C23.345 5.20058 18.4015 6.23333 15.2004 7.5846C3.93744 12.3391 -6.80726 31.6496 15.2107 48.6273C9.03603 45.3557 4.95931 41.4999 2.67638 37.2114C-4.4934 23.7428 4.01723 7.56436 17.4046 4.4401C22.7801 2.8773 29.2713 3.06995 34.6173 6.79193C37.2388 8.61707 39.8239 11.0672 41.585 15.0166Z" fill="#669934"/>
<path fill-rule="evenodd" clip-rule="evenodd" d="M18.4907 26.1361C18.0377 26.5849 17.3582 26.3231 17.0751 26.1361C16.8864 23.8923 15.1877 22.9574 13.6777 23.0509C12.1071 23.1481 11.9607 23.8908 11.8421 24.4924C11.8255 24.5763 11.8095 24.6575 11.7903 24.7337C10.2803 25.1825 9.83989 26.0426 9.80843 26.4166C9.74552 26.8217 9.61969 27.8938 9.61969 28.9409C9.1667 30.4367 8.04681 30.2498 7.54349 29.9693C8.22297 31.2408 9.33657 30.5614 9.80843 30.0628C9.88393 30.2871 9.39948 30.9042 9.14782 31.1847C9.67631 31.1847 10.0601 30.7484 10.1859 30.5302C10.1859 31.2034 10.9409 31.9949 11.3184 32.3066C11.6959 33.7089 10.1859 33.8959 10.469 32.2131L10.1859 32.961C9.99718 33.7089 10.469 33.9894 11.0353 33.9894C11.2488 33.9894 11.7273 33.6155 11.979 33.2415C12.0545 34.513 10.6892 34.6439 9.99718 34.5504L10.1859 33.9894C9.50644 33.9894 9.43094 33.148 9.99718 32.587C9.93426 32.5247 9.52532 32.6805 9.33656 32.961C8.29846 35.2983 10.7522 35.9483 11.6959 35.8593C13.2813 35.7097 13.6148 33.6778 13.5833 32.587C13.9608 33.0358 13.7406 34.2699 13.5833 34.8308C13.4621 35.001 13.2836 35.2059 13.0905 35.4275C12.6824 35.896 12.2091 36.4393 12.0734 36.8877C11.7903 37.8226 12.9227 38.851 13.5833 38.477C13.3002 39.1315 13.7092 40.0975 14.0552 40.3469V39.5989C14.0552 39.3745 14.6214 38.5705 14.9045 38.1965C15.282 38.047 15.8797 36.2644 16.1314 35.3918C16.3579 35.7658 15.7224 37.4174 15.3764 38.1965L15.5652 39.4119C15.5022 39.5366 15.3387 39.842 15.1877 40.0664C15.0367 40.2908 15.2506 40.5962 15.3764 40.7208H17.0751C17.3355 40.2564 17.1576 39.9059 16.9656 39.5279C16.8098 39.221 16.6447 38.8959 16.6976 38.477C16.7605 37.9784 17.094 36.9438 17.9244 36.7942C18.7549 36.6446 18.8367 35.1113 18.7738 34.3634C18.8053 34.2387 18.887 34.0268 18.9625 34.1764C19.4155 34.2512 19.34 35.2671 19.2457 35.7658C19.8957 35.3793 19.8293 34.1056 19.7868 33.2893C19.7675 32.9206 19.7532 32.6452 19.8119 32.587C21.1709 32.0635 22.3914 30.3744 22.8318 29.5953L22.6431 30.8107C21.9825 31.4651 20.4725 33.2415 21.0387 33.7089L23.7755 36.6072L23.9643 37.1681L25.1911 37.9161L25.3799 38.664C25.4428 38.6017 25.6252 38.5144 25.8517 38.664C26.0782 38.8136 27.1415 38.6017 27.6448 38.477C27.6448 37.7291 26.1349 36.9188 25.3799 36.6072C24.8514 36.3828 23.4924 34.5504 23.4924 33.522C23.3351 33.2415 23.2093 32.6618 23.9643 32.587C24.908 32.4936 25.9461 31.0912 26.0405 30.4367C26.116 29.9132 26.3236 28.5357 26.418 27.9125C30.4949 26.641 33.2757 23.456 33.9678 22.0225H34.3453L37.5539 18.7503L38.9695 21.2746L38.7808 21.555C38.6216 21.6601 38.593 21.8945 38.5572 22.1868C38.5421 22.3105 38.5257 22.4445 38.4977 22.5834C38.8122 22.7081 40.2907 22.9574 40.2907 22.9574C40.2907 22.9574 40.2907 22.3954 40.2376 21.929C40.219 21.7649 40.1093 21.6963 40.0193 21.6399C39.9746 21.612 39.9348 21.5871 39.9133 21.555C39.8899 21.4395 39.9047 21.3231 39.9194 21.2062C39.9363 21.0724 39.9533 20.938 39.9133 20.8038C39.7077 20.4557 39.5108 20.0811 39.3173 19.713C38.8891 18.8985 38.4777 17.9289 38.0258 17.5349C37.9795 17.4945 37.9919 17.5048 37.8652 17.3467C37.7592 17.2145 37.6483 17.0761 37.6483 16.9739C37.1198 16.3756 36.4215 16.7246 36.2327 16.9739L33.9678 18.7503C33.9678 18.2267 32.6466 16.1637 31.986 15.1976L33.1184 16.413C33.6469 16.413 34.1565 15.852 34.3453 15.5716V14.2627C33.5903 13.5148 33.2128 11.8319 33.1184 11.084L37.9314 6.87684L32.8353 9.86857C32.0048 9.27023 29.6581 9.36994 28.5885 9.49458C28.1356 9.0458 27.4561 9.24527 27.173 9.40111C27.4749 9.25152 27.6134 9.77508 27.6448 10.0556C27.5693 9.90598 26.5438 9.99324 26.0405 10.0556C26.3425 10.0556 26.418 10.5542 26.418 10.8035C23.7 11.6262 24.6563 12.7045 25.4742 13.1408C25.3987 12.6173 25.7574 12.5487 25.9461 12.5799C25.5686 13.7766 24.7193 13.4524 24.3418 13.1408C24.1908 13.5896 24.6563 13.9511 24.908 14.0757C24.8451 14.1069 24.6438 14.1879 24.3418 14.2627C24.0398 14.3375 23.7755 14.7302 23.6812 14.9171C23.9077 14.6928 24.4676 14.8237 24.7193 14.9171L24.5458 15.7763C24.5359 15.8033 24.5305 15.8288 24.5305 15.8521L24.5458 15.7763C24.6312 15.5431 25.0502 15.1976 25.1911 15.1976C24.7381 17.2918 25.5686 18.0024 26.0405 18.0959C25.7128 17.7712 25.8628 16.742 25.9256 16.3538C25.8404 17.0577 26.2103 17.7379 26.418 18.0024C26.4935 18.3015 25.6315 18.5633 25.1911 18.6568C24.9709 18.7191 24.4928 18.9373 24.3418 19.3113C24.1908 19.6852 24.5305 19.9657 24.7193 20.0592C24.8703 19.4608 25.3484 19.2489 25.5686 19.2178C25.2666 19.3674 25.317 19.841 25.3799 20.0592C25.5686 19.9345 26.0405 19.7039 26.418 19.7787C26.7955 19.8535 27.3932 19.2489 27.6448 18.9373C27.7203 19.386 27.2359 20.0592 26.9842 20.3397L27.6448 19.9657L27.5504 20.4332C27.0786 21.5551 25.663 22.49 23.4924 23.1444C23.4515 23.1568 23.3612 23.1635 23.2328 23.1731C22.795 23.2058 21.9144 23.2716 21.0387 23.7054C19.5481 24.4437 19.1757 25.0808 18.8787 25.5889C18.7596 25.7926 18.6527 25.9756 18.4907 26.1361ZM18.1132 27.3515C17.3582 27.1645 16.2258 27.2954 16.2258 27.819C16.2258 28.7021 16.9664 29.2956 17.5732 29.7818C17.7373 29.9132 17.8916 30.0369 18.0188 30.1563L18.1132 27.3515Z" fill="#314720"/>
<path d="M40.3852 18.4698C40.0077 18.0958 38.3404 17.5661 37.554 17.4414L38.2146 18.8438C38.5166 18.6942 39.9762 19.4047 40.7626 19.8722L40.9514 20.3396V21.1811H42.5557L42.367 20.0592C42.1782 19.9033 41.763 19.5917 41.612 19.5917C41.3855 19.2925 41.266 19.0931 41.2345 18.8438L40.3852 18.4698Z" fill="#314720"/>
<path d="M69.831 21.2188L68.5947 16.7861H68.5344L67.283 21.2188H64.3581L61.4482 13.2581H64.6747L65.8808 17.9621H65.9864L67.2378 13.2581H70.223L71.4292 17.9621H71.5347L72.7559 13.2581H75.6808L72.7559 21.2188H69.831ZM75.9422 12.3234V10.288H78.9425V12.3234H75.9422ZM75.9422 21.2188V13.2581H78.9425V21.2188H75.9422ZM85.5313 10.6649C86.5263 10.6649 87.4209 10.8157 88.2149 11.1172C89.009 11.4187 89.6372 11.866 90.0996 12.4591C90.572 13.042 90.8082 13.7557 90.8082 14.6H87.6269C87.6269 14.1678 87.436 13.821 87.054 13.5597C86.6721 13.2883 86.2097 13.1526 85.6669 13.1526C84.8829 13.1526 84.2899 13.3637 83.8879 13.7858C83.4858 14.1979 83.2848 14.7859 83.2848 15.5498V16.5147C83.2848 17.2786 83.4858 17.8717 83.8879 18.2938C84.2899 18.7059 84.8829 18.912 85.6669 18.912C86.2097 18.912 86.6721 18.7863 87.054 18.5351C87.436 18.2737 87.6269 17.942 87.6269 17.54H85.2749V15.4292H90.8082V21.2188H89.0894L88.7577 20.1935C87.8129 20.9976 86.5766 21.3997 85.0488 21.3997C83.33 21.3997 82.0384 20.9524 81.174 20.0578C80.3096 19.1532 79.8774 17.8114 79.8774 16.0323C79.8774 14.2733 80.3649 12.9415 81.3399 12.0369C82.3249 11.1222 83.722 10.6649 85.5313 10.6649ZM97.2763 10.6649C99.0654 10.6649 100.447 11.1222 101.422 12.0369C102.397 12.9516 102.885 14.2834 102.885 16.0323C102.885 17.7812 102.397 19.113 101.422 20.0277C100.447 20.9423 99.0654 21.3997 97.2763 21.3997C95.4872 21.3997 94.1051 20.9474 93.1301 20.0427C92.1652 19.1281 91.6828 17.7913 91.6828 16.0323C91.6828 14.2733 92.1652 12.9415 93.1301 12.0369C94.1051 11.1222 95.4872 10.6649 97.2763 10.6649ZM97.2763 13.1526C96.5627 13.1526 96.0199 13.3687 95.648 13.8009C95.2761 14.2331 95.0901 14.8161 95.0901 15.5498V16.5147C95.0901 17.2485 95.2761 17.8315 95.648 18.2637C96.0199 18.6959 96.5627 18.912 97.2763 18.912C97.9899 18.912 98.5327 18.6959 98.9046 18.2637C99.2866 17.8315 99.4775 17.2485 99.4775 16.5147V15.5498C99.4775 14.8161 99.2866 14.2331 98.9046 13.8009C98.5327 13.3687 97.9899 13.1526 97.2763 13.1526Z" fill="#669934"/>
<path d="M69.7762 35.7822V32.0431C69.7762 31.5808 69.7912 31.1084 69.8214 30.6259C69.8616 30.1334 69.9018 29.7213 69.942 29.3896C69.9822 29.0579 70.0073 28.8468 70.0174 28.7564H69.9571L68.0423 35.7822H65.434L63.5042 28.7715H63.4438C63.4539 28.8619 63.479 29.073 63.5192 29.4047C63.5695 29.7263 63.6147 30.1334 63.6549 30.6259C63.6951 31.1084 63.7152 31.5808 63.7152 32.0431V35.7822H60.6546V25.4093H65.3586L66.9266 31.3948H66.9869L68.5398 25.4093H73.078V35.7822H69.7762ZM81.3 35.7822L80.8628 34.3198H77.2292L76.792 35.7822H73.3846L77.1689 25.4093H81.0437L84.828 35.7822H81.3ZM77.9228 31.9979H80.1692L79.0837 28.3041H79.0234L77.9228 31.9979ZM95.1756 28.5905C95.1756 29.2238 95.0047 29.7967 94.663 30.3093C94.3212 30.8219 93.8237 31.1988 93.1704 31.4401L95.4771 35.7822H91.738L89.8987 31.9979H88.6624V35.7822H85.3304V25.4093H91.6777C92.4215 25.4093 93.0548 25.555 93.5774 25.8465C94.1102 26.128 94.5072 26.5149 94.7685 27.0075C95.0399 27.4899 95.1756 28.0176 95.1756 28.5905ZM91.7833 28.7262C91.7833 28.4548 91.6928 28.2287 91.5119 28.0478C91.331 27.8668 91.1098 27.7764 90.8485 27.7764H88.6624V29.6911H90.8485C91.1098 29.6911 91.331 29.6007 91.5119 29.4198C91.6928 29.2288 91.7833 28.9976 91.7833 28.7262ZM103.337 25.4093H107.468L103.744 29.6761L107.543 35.7822H103.608L101.452 31.9828L99.6432 33.4604V35.7822H96.3112V25.4093H99.6432V29.8419L103.337 25.4093ZM108.117 25.4093H117.087V27.897H111.449V29.3293H116.273V31.7115H111.449V33.2945H117.193V35.7822H108.117V25.4093ZM124.214 28.0628V35.7822H120.882V28.0628H117.474V25.4093H127.606V28.0628H124.214Z" fill="#669934"/>
</svg>

<svg xmlns="http://www.w3.org/2000/svg" width="144" height="49" fill="none" viewBox="0 0 144 49"><path fill="#669934" d="M9.808 14.615c1.85-1.841 4.422-3.517 7.833-4.933-4.866 3.619-7.78 7.246-9.166 10.658-1.263 3.775-1.7 7.09-1.155 9.91.856 4.865 3.243 8.559 5.791 10.906 8.966 8.26 31.143 10.13 37.844-16.703-.505 6.92-2.403 12.177-5.43 15.987-9.503 11.967-27.884 10.845-36.21 0-3.627-4.229-5.515-9.822-4.257-16.174.617-3.115 1.825-6.45 4.75-9.65"/><path fill="#669934" d="M15.754 39.412c4.719 3.927 10.642 5.264 15.48 4.54 7.629-1.139 12.89-6.75 15.291-13.328 2.44-6.685 1.24-13.9-2.063-19.37C41.423 6.222 37.176 2.606 29.06.61 24.056-.62 18.3-.137 11.98 3.418 32.665-2.491 40.557 8.747 43.7 14.965q.045.087.087.176c5.936 12.149-4.273 34.692-28.034 24.271"/><path fill="#669934" d="M41.585 15.017c1.134 2.423 1.537 5.79.986 9.843-.98-5.876-3.14-10.736-5.722-13.378-2.968-2.68-5.849-4.423-8.67-5.077-4.834-1.204-9.777-.172-12.979 1.18-11.263 4.754-22.007 24.065.01 41.042C9.037 45.356 4.96 41.5 2.677 37.211c-7.17-13.468 1.341-29.647 14.729-32.77C22.78 2.876 29.27 3.07 34.617 6.79c2.622 1.826 5.207 4.276 6.968 8.226"/><path fill="#314720" fill-rule="evenodd" d="M18.49 26.136c-.452.449-1.132.187-1.415 0-.189-2.244-1.887-3.179-3.397-3.085-1.57.097-1.717.84-1.836 1.441q-.024.126-.052.242c-1.51.448-1.95 1.309-1.982 1.683a19 19 0 0 0-.188 2.524c-.453 1.496-1.573 1.309-2.077 1.028.68 1.272 1.794.592 2.265.094.076.224-.409.841-.66 1.122.528 0 .912-.437 1.038-.655 0 .673.755 1.465 1.132 1.777.378 1.402-1.132 1.589-.849-.094l-.283.748c-.189.748.283 1.028.85 1.028.213 0 .691-.373.943-.747.076 1.271-1.29 1.402-1.982 1.308l.189-.56c-.68 0-.755-.842-.189-1.403-.063-.062-.472.093-.66.374-1.039 2.337 1.415 2.987 2.359 2.898 1.585-.15 1.919-2.181 1.887-3.272.378.449.158 1.683 0 2.244-.12.17-.3.375-.492.596-.409.469-.882 1.012-1.018 1.46-.283.936.85 1.964 1.51 1.59-.283.655.126 1.62.472 1.87v-.748c0-.224.566-1.028.85-1.402.377-.15.975-1.933 1.226-2.805.227.374-.409 2.025-.755 2.804l.19 1.216c-.064.125-.227.43-.378.654s.063.53.188.655h1.7c.26-.465.082-.815-.11-1.193-.156-.307-.321-.632-.268-1.051.063-.499.396-1.533 1.226-1.683s.913-1.683.85-2.43c.031-.125.113-.337.188-.188.454.075.378 1.091.284 1.59.65-.387.583-1.66.54-2.477-.019-.368-.033-.644.026-.702 1.359-.524 2.58-2.213 3.02-2.992l-.189 1.216c-.66.654-2.17 2.43-1.604 2.898l2.736 2.898.19.561 1.226.748.189.748c.063-.062.245-.15.472 0s1.29-.062 1.793-.187c0-.748-1.51-1.558-2.265-1.87-.529-.224-1.888-2.057-1.888-3.085-.157-.28-.283-.86.472-.935.944-.093 1.982-1.496 2.077-2.15.075-.524.283-1.901.377-2.524 4.077-1.272 6.858-4.457 7.55-5.89h.377l3.209-3.273 1.415 2.525-.188.28c-.16.105-.188.34-.224.632a5 5 0 0 1-.06.396c.315.125 1.794.374 1.794.374s0-.562-.053-1.028c-.019-.164-.129-.233-.219-.29a.4.4 0 0 1-.106-.084c-.023-.116-.008-.232.006-.349.017-.134.034-.268-.006-.402-.205-.348-.402-.723-.596-1.091-.428-.815-.84-1.784-1.291-2.178-.047-.04-.034-.03-.16-.188-.107-.133-.218-.27-.218-.373-.528-.598-1.227-.25-1.415 0l-2.265 1.776c0-.523-1.321-2.586-1.982-3.552l1.132 1.215c.529 0 1.038-.561 1.227-.841v-1.31c-.755-.747-1.132-2.43-1.227-3.178l4.813-4.207-5.096 2.992c-.83-.599-3.177-.5-4.247-.374-.452-.45-1.132-.25-1.415-.094.302-.15.44.374.472.655-.076-.15-1.101-.063-1.604 0 .302 0 .377.498.377.748-2.718.822-1.762 1.9-.944 2.337-.075-.524.283-.592.472-.561-.377 1.197-1.227.872-1.604.56-.151.45.314.811.566.936a3 3 0 0 1-.566.187c-.302.075-.566.467-.66.654.226-.224.786-.093 1.037 0l-.173.86a.2.2 0 0 0-.015.075l.015-.076c.085-.233.504-.578.645-.578-.453 2.094.378 2.804.85 2.898-.328-.325-.178-1.354-.115-1.742-.086.704.284 1.384.492 1.648.076.3-.787.561-1.227.655-.22.062-.698.28-.85.654-.15.374.19.655.378.748.151-.598.63-.81.85-.841-.302.15-.252.623-.19.841.19-.125.662-.355 1.039-.28.378.075.975-.53 1.227-.842.075.449-.41 1.122-.66 1.403l.66-.374-.095.467c-.471 1.122-1.887 2.057-4.058 2.711-.04.013-.13.02-.26.03-.437.032-1.318.098-2.193.531-1.49.739-1.863 1.376-2.16 1.884-.12.204-.226.387-.388.547m-.377 1.216c-.755-.187-1.887-.057-1.887.467 0 .883.74 1.477 1.347 1.963.164.131.319.255.446.374z" clip-rule="evenodd"/><path fill="#314720" d="M40.385 18.47c-.377-.374-2.045-.904-2.831-1.029l.66 1.403c.303-.15 1.762.56 2.549 1.028l.188.468v.841h1.605l-.189-1.122c-.189-.156-.604-.467-.755-.467-.227-.3-.346-.499-.378-.748z"/><path fill="#669934" d="m69.831 21.219-1.236-4.433h-.06l-1.252 4.433h-2.925l-2.91-7.96h3.227l1.206 4.703h.105l1.252-4.704h2.985l1.206 4.704h.106l1.22-4.704h2.926l-2.925 7.96zm6.111-8.896v-2.035h3v2.035zm0 8.896v-7.96h3v7.96zm9.59-10.554q1.491 0 2.683.452 1.19.453 1.885 1.342.708.875.708 2.141h-3.181q0-.648-.573-1.04-.573-.407-1.387-.407-1.176 0-1.78.633-.602.618-.602 1.764v.965q0 1.146.603 1.779.603.618 1.779.618.814 0 1.387-.377.573-.392.573-.995h-2.352v-2.11h5.533v5.789H89.09l-.331-1.026Q87.34 21.4 85.048 21.4q-2.578 0-3.874-1.342-1.297-1.358-1.297-4.026 0-2.638 1.463-3.995 1.477-1.372 4.191-1.372m11.744 0q2.684 0 4.146 1.372 1.463 1.372 1.463 3.995t-1.463 3.996-4.146 1.372-4.146-1.357q-1.447-1.373-1.447-4.01 0-2.64 1.447-3.996 1.463-1.372 4.146-1.372m0 2.488q-1.07 0-1.628.648t-.558 1.749v.965q0 1.1.558 1.749.558.648 1.628.648 1.071 0 1.629-.648.573-.648.573-1.75v-.964q0-1.1-.573-1.75-.558-.647-1.629-.647M69.776 35.782v-3.739q0-.694.045-1.417.06-.74.121-1.236l.075-.634h-.06l-1.915 7.026h-2.608l-1.93-7.01h-.06l.075.633q.075.482.136 1.22.06.725.06 1.418v3.74h-3.06V25.408h4.704l1.568 5.986h.06l1.553-5.986h4.538v10.373zm11.524 0-.437-1.462h-3.634l-.437 1.462h-3.407l3.784-10.373h3.875l3.784 10.373zm-3.377-3.784h2.246l-1.085-3.694h-.06zm17.253-3.408a3.03 3.03 0 0 1-.513 1.72q-.513.768-1.493 1.13l2.307 4.342h-3.739l-1.84-3.784h-1.236v3.784H85.33V25.41h6.348q1.115 0 1.9.438.799.422 1.19 1.16.408.724.408 1.583m-3.393.136a.92.92 0 0 0-.271-.678.9.9 0 0 0-.663-.272h-2.187v1.915h2.186q.393 0 .664-.271a.97.97 0 0 0 .271-.694m11.554-3.317h4.131l-3.724 4.267 3.799 6.106h-3.935l-2.156-3.8-1.809 1.478v2.322h-3.332V25.41h3.332v4.433zm4.78 0h8.97v2.488h-5.638v1.432h4.824v2.383h-4.824v1.582h5.744v2.488h-9.076zm16.097 2.654v7.72h-3.332v-7.72h-3.408V25.41h10.132v2.654z"/></svg>
